X:166
T:Rondeau de Lagardre 1
C:trad
A:Landes
O:France
Z:S. Piron
M:6/8
L:1/8
Q:1/4=150
K:G
DEF G2 D|B2 Gd2B|GBdc2B|1AcAB2G:|2AcA G3|
|:GBd c2B|A2ed3|GBd c2B|1AcAB2G:|2AcA G3||
